src/icons/SVG/64px/Payment_Cards_Monochrome_OneyX3_64px.svg

<svg width="64" height="64" viewBox="0 0 64 64" fill="none" xmlns="http://www.w3.org/2000/svg">
<g id="Square"> </g>
<g id="Icon">
<path id="Subtract" fill-rule="evenodd" clip-rule="evenodd" d="M51.75 32C51.75 42.9076 42.9076 51.75 32 51.75C21.0924 51.75 12.25 42.9076 12.25 32C12.25 21.0924 21.0924 12.25 32 12.25C42.9076 12.25 51.75 21.0924 51.75 32ZM25.9251 38.5125C24.5251 38.5125 23.3717 38.1967 22.4651 37.565C21.5705 36.9554 20.9239 36.0454 20.6426 35L23.5051 34.16C23.6636 34.6469 23.9815 35.0661 24.4076 35.35C24.8711 35.648 25.4143 35.7979 25.9651 35.78C26.4573 35.7931 26.9389 35.6349 27.3276 35.3325C27.7047 35.0304 27.9132 34.5651 27.8876 34.0825C27.9113 33.5962 27.685 33.1314 27.2876 32.85C26.8332 32.5482 26.2951 32.3977 25.7501 32.42H24.1676V29.94H25.6826C26.1912 29.9736 26.6968 29.8402 27.1226 29.56C27.4559 29.305 27.6226 28.8884 27.6226 28.31C27.6393 27.8871 27.4536 27.4814 27.1226 27.2175C26.78 26.9454 26.3524 26.8028 25.9151 26.815C24.9567 26.815 24.3159 27.315 23.9926 28.315L21.0126 27.475C21.1251 27.0303 21.3119 26.6076 21.5651 26.225C21.837 25.8196 22.1682 25.4572 22.5476 25.15C22.9868 24.802 23.4882 24.5407 24.0251 24.38C24.6497 24.1857 25.3009 24.0903 25.9551 24.0975C27.4001 24.0975 28.5717 24.4392 29.4701 25.1225C30.3505 25.7667 30.8551 26.8048 30.8176 27.895C30.8404 28.5471 30.6727 29.1917 30.3351 29.75C30.0124 30.2515 29.5336 30.6328 28.9726 30.835V30.855C29.5867 31.0673 30.1139 31.4758 30.4726 32.0175C30.8923 32.6423 31.1056 33.3828 31.0826 34.135C31.1204 35.3552 30.5938 36.5247 29.6551 37.305C28.7101 38.11 27.4667 38.5125 25.9251 38.5125ZM42.9595 27.5L39.2095 32.725L42.8995 38.25H39.237L37.3345 35.3875L35.5845 38.25H32.0845L35.657 32.9075L32.0995 27.5H35.762L37.617 30.3025L39.472 27.5H42.9595Z" fill="black"/>
</g>
</svg>

<svg xmlns="http://www.w3.org/2000/svg" viewBox="0 0 64 64">
  <g id="Square"> </g>
  <path fill-rule="evenodd" d="M51.75 32c0 10.908-8.842 19.75-19.75 19.75S12.25 42.908 12.25 32 21.092 12.25 32 12.25 51.75 21.092 51.75 32zm-25.825 6.513c-1.4 0-2.553-.316-3.46-.948A4.528 4.528 0 0120.643 35l2.862-.84c.159.487.477.906.903 1.19a2.717 2.717 0 001.557.43c.492.013.974-.145 1.363-.447a1.5 1.5 0 00.56-1.25 1.425 1.425 0 00-.6-1.233 2.588 2.588 0 00-1.538-.43h-1.582v-2.48h1.515c.508.034 1.014-.1 1.44-.38.333-.255.5-.672.5-1.25a1.33 1.33 0 00-.5-1.092 1.858 1.858 0 00-1.208-.403c-.958 0-1.6.5-1.922 1.5l-2.98-.84c.112-.445.299-.867.552-1.25.272-.405.603-.768.983-1.075.439-.348.94-.61 1.477-.77a6.265 6.265 0 011.93-.282c1.445 0 2.617.341 3.515 1.024a3.295 3.295 0 011.348 2.773 3.358 3.358 0 01-.483 1.855 2.715 2.715 0 01-1.362 1.085v.02c.614.212 1.14.62 1.5 1.162a3.6 3.6 0 01.61 2.118 3.963 3.963 0 01-1.428 3.17c-.945.805-2.188 1.208-3.73 1.208zM42.96 27.5l-3.75 5.225 3.69 5.525h-3.662l-1.903-2.862-1.75 2.862h-3.5l3.573-5.343L32.1 27.5h3.662l1.855 2.802 1.855-2.802h3.487z"/>
</svg>
